!!!COM: Anonymous
!!!OTL: Du bon du cueur
!!!AGN: Song; Chanson; Rondeau
!!!SCT: Ano3099
!!!SCA: Ano3099
!!!SMS: Dijon Chansonnier
!!!folio: 25v-26r
!!!SMS2: Col
!!!SMS3: F229
!!!voices: 3
**kern	**kern	**kern
*staff3	*staff2	*staff1
*Ivox	*Ivox	*Ivox
*I"Contra	*I"Tenor	*I"Discantus
*I'C	*I'T	*I'D
*clefF4	*clefGv2	*clefG2
*k[]	*k[]	*k[]
*M2/1	*M2/1	*M2/1
*met(C|)	*met(C|)	*met(C|)
=1-	=1-	=1-
0G	0r	0r
=2	=2	=2
1A	0r	0r
1A	.	.
=3	=3	=3
1.B-i	0G	0r
4A	.	.
4G	.	.
=4	=4	=4
0F	1A	0r
.	1A	.
=5	=5	=5
1r	1.B-i	0g
1E	.	.
.	2A	.
=6	=6	=6
1.D	0F	1a
.	.	1a
2C	.	.
=7	=7	=7
1BB-i	1r	1.b-i
1E-i	1G	.
.	.	4a
.	.	4g
=8	=8	=8
2D	1.A	0f
1F	.	.
4E-i	4G	.
4D	4F	.
=9	=9	=9
2C	2.E	1r
2BB-i	.	.
.	4D	.
1C	1E	1g
=10	=10	=10
2r	1D	1.a
1F	.	.
.	[1d	.
2D	.	4g
.	.	4f
=11	=11	=11
1A	2d]	2e
.	4c#i	2d
.	4B	.
1A	2c#i	1e
.	4B	.
.	4c#i	.
=12	=12	=12
1D	1d	2f
.	.	1d
2.G	2B	.
.	[2G	2e
4C	.	.
=13	=13	=13
1G	2G]	2d
.	2B	1g
1D	1A	.
.	.	2f#i
=14	=14	=14
1r	[0G	0g
[1E	.	.
=15	=15	=15
2E]	0G]	1r
2F	.	.
[1G	.	1b
=16	=16	=16
1G]	1r	1b
1G	1G	1b
=17	=17	=17
1D	1d	0a
1F	2c	.
.	2A	.
=18	=18	=18
0G	1B	1r
.	1B	1dd
=19	=19	=19
1r	1A	1.cc
1A	1c	.
.	.	2a
=20	=20	=20
0G	1.d	1b
.	.	1b
.	2e	.
=21	=21	=21
1.F	1.f	2a
.	.	1cc
2G	4e	2dd
.	4d	.
=22	=22	=22
1E	1c	1ee
1D	[1d	[1ff
=23	=23	=23
2r	1d]	2ff]
1.D	.	2ee
.	1f	[1dd
=24	=24	=24
2.A	0e	2dd]
.	.	4cc#i
4F	.	4b
2G	.	2cc#i
2A	.	4b
.	.	4cc#i
=25	=25	=25
2.B-i	1r	2.dd
4A	.	4cc
2G	1d	2b
[2F	.	[2a
=26	=26	=26
2F]	2c	2a]
2G	2B	2dd
2A	2A	2cc
[2E	2G	[2b
=27	=27	=27
2E]	2c	4b]
.	.	4a
2F	2d	1a
1G	1B	.
.	.	2g
=28	=28	=28
1.F	0A	1.a
2D	.	2f
=29	=29	=29
[0DN	[0dN	0fN
=30	=30	=30
0D]	0d]	1r
.	.	1f
=31	=31	=31
1E	1r	1g
1F	1c	1a
=32	=32	=32
2.D	1.d	1.b-i
4E	.	.
2.F	.	.
.	4c	4a
4G	4B	4g
=33	=33	=33
1D	1A	2f
.	.	2e
1r	1A	1f
=34	=34	=34
1.E	1G	2r
.	.	1g
.	1r	.
4D	.	4f
4C	.	4e
=35	=35	=35
2BB	1.G	1d
2.C	.	.
.	.	1g
4D	.	.
2E	4F	.
.	4E	.
=36	=36	=36
1F	1D	1a
2BB	1G	2d
[2C	.	[2e
=37	=37	=37
2C]	0A	2e]
1D	.	1f
[2C	.	[2e
=38	=38	=38
2C]	1G	2e]
2.BB	.	2f
.	1F	[1d
4C	.	.
2D	.	.
=39	=39	=39
2.AA	0E	2d]
.	.	4c#i
4BB	.	4B
1AA	.	1c#i
=40	=40	=40
1r	0D	1d
1D	.	1r
=41	=41	=41
1E	0r	1g
1D	.	2a
.	.	[2b-i
=42	=42	=42
1E	1G	2b-i]
.	.	4a
.	.	4g
1D	2A	1f
.	[2B-i	.
=43	=43	=43
1E	2B-]	1g
.	4A	.
.	4G	.
2.D	1F	1a
4C	.	.
=44	=44	=44
1BB	1G	1d
1AA	1A	1r
=45	=45	=45
2BB	1D	1b
2D	.	.
2E	1r	2cc
2F	.	[2dd
=46	=46	=46
1G	1B	2dd]
.	.	4cc
.	.	4b
1F	2c	1a
.	[2d	.
=47	=47	=47
2D	2d]	1b
1G	1e	.
.	.	1g
2E	[2c	.
=48	=48	=48
2F	2c]	2.a
2.D	2.d	.
.	.	4g
.	.	2a
4C	4c	.
[2BB	[2d	[2b
=49	=49	=49
4BB]	2d]	2b]
4AA	.	.
4BB	4c	4a
4C	4B	4g
1D	1A	2f#i
.	.	4e
.	.	4f#i
=50	=50	=50
0GGl	0Gl	0gl
==	==	==
*-	*-	*-
!!!RDF**kern: l=long note in original notation
!!!RDF**kern: i=editorial accidental
!!!RDF**kern: N=signum congruentiae
!!!ENC: Chris Gage 08-04-2016
!!!END: 2018/09/27
!!!EED: Jesse Rodin
!!!EEV: 2018/11/29
!!!ONB: Translated from MusicXML and edited on 2018/11/29 by Craig Sapp
!!muse2ps: C^@{COM}\n@{SMS}, @{folio}; also @{SMS2}, @{SMS3}^v105,105,180Q16
